X: 2241
T: Aye Right
R: reel
M: 4/4
K: Emajor
fe|g3f gc c/c/c|Bc c/c/c ecfc|g3f gc c/c/c|Bcef gagf|
g3f gc c/c/c|Bc c/c/c ecfc|ec c/c/c acec|Bcef e2:|
|:fe|gage Bcec|Bege bege|gage Bcec|Bege fece|
gage Bcec|Bege bege|bege aege|fefg e2:|
|:fe|gebe Bece|Bece Bece|gebe Bece|Bege fece|
gebe Bece|Bece Bece|be e/e/e aege|fefg e2:|

